{RLPF.ar(Dust.ar([100,500]), LFNoise1.ar([0.3, 0.2]).range(10, 6000), 0.02)}.play;


{RLPF.ar(Dust.ar([10,50]), LFNoise1.ar([0.3, 0.2]).range(10, 6000), 0.02)}.play;

{RLPF.ar(Dust.ar([10,15]), LFNoise1.ar([0.3, 0.2]).range(10, 6000), 0.02)}.play;